assets/icons/calendar-check.svg

<svg width="20" height="20" viewBox="0 0 20 20" fill="none" xmlns="http://www.w3.org/2000/svg">
<path d="M13.9996 3.77778V2M5.99964 3.77778V2M2.22186 6.44444H17.7774" stroke="currentColor" stroke-width="1.2" stroke-linecap="round" stroke-linejoin="round"/>
<path d="M2 8.26139C2 6.38139 2 5.44095 2.38756 4.72272C2.738 4.08211 3.28177 3.5685 3.94133 3.25517C4.70222 2.88895 5.69778 2.88895 7.68889 2.88895H12.3111C14.3022 2.88895 15.2978 2.88895 16.0587 3.25517C16.728 3.57695 17.2711 4.09072 17.6124 4.72184C18 5.44184 18 6.38228 18 8.26228V12.6285C18 14.5085 18 15.4489 17.6124 16.1672C17.262 16.8078 16.7182 17.3214 16.0587 17.6347C15.2978 18.0001 14.3022 18.0001 12.3111 18.0001H7.68889C5.69778 18.0001 4.70222 18.0001 3.94133 17.6338C3.28191 17.3207 2.73814 16.8075 2.38756 16.1672C2 15.4472 2 14.5067 2 12.6267V8.26139Z" stroke="currentColor" stroke-width="1.2" stroke-linecap="round" stroke-linejoin="round"/>
<path d="M7.67606 11.9936L9.22525 13.5428L12.3236 10.4444" stroke="currentColor" stroke-width="1.2" stroke-linecap="round" stroke-linejoin="round"/>
</svg>

<svg xmlns="http://www.w3.org/2000/svg" width="20" height="20" fill="none" viewBox="0 0 20 20"><path stroke="currentColor" stroke-linecap="round" stroke-linejoin="round" stroke-width="1.2" d="M14 3.778V2M6 3.778V2M2.222 6.444h15.555M2 8.261c0-1.88 0-2.82.388-3.538.35-.64.894-1.154 1.553-1.468.761-.366 1.757-.366 3.748-.366h4.622c1.991 0 2.987 0 3.748.366a3.47 3.47 0 0 1 1.553 1.467c.388.72.388 1.66.388 3.54v4.367c0 1.88 0 2.82-.388 3.538a3.47 3.47 0 0 1-1.553 1.468C15.298 18 14.302 18 12.31 18H7.69c-1.991 0-2.987 0-3.748-.366a3.47 3.47 0 0 1-1.553-1.467C2 15.447 2 14.507 2 12.627z"/><path stroke="currentColor" stroke-linecap="round" stroke-linejoin="round" stroke-width="1.2" d="m7.676 11.994 1.55 1.549 3.098-3.099"/></svg>
